64x64/apps/AdobeCharacterAnimator.svg

<svg height="64" width="64" xmlns="http://www.w3.org/2000/svg"><path d="m4 56.2v2c0 1.55 1.25 2.8 2.8 2.8h50.4c1.55 0 2.8-1.25 2.8-2.8v-2c0 1.55-1.25 2.8-2.8 2.8h-50.4c-1.55 0-2.8-1.25-2.8-2.8z" opacity=".2"/><rect fill="#5f3271" height="56" rx="2.8" width="56" x="4" y="4"/><path d="m6.8 4c-1.55 0-2.8 1.25-2.8 2.8v1.003c0-1.551 1.25-2.801 2.8-2.801h50.4c1.55 0 2.8 1.25 2.8 2.8v-1c0-1.552-1.25-2.802-2.8-2.802z" fill="#f4f4f7" opacity=".1"/><path d="m35 20v27h4v-13h4c2 0 2 2 2 2v11h4v-12c0-2-2-5-7-5-1.163 0-2.149.115-3 .281v-10.281z" opacity=".2"/><path d="m35 19v27h4v-13h4c2 0 2 2 2 2v11h4v-12c0-2-2-5-7-5-1.163 0-2.149.115-3 .281v-10.281z" fill="#da97fb"/><path d="m26.5 19a11.5 14 0 0 0 -11.5 14 11.5 14 0 0 0 11.5 14 11.5 14 0 0 0 3.5-.67v-7.176a5.5 8 0 0 1 -3.5 1.846 5.5 8 0 0 1 -5.5-8 5.5 8 0 0 1 5.5-8 5.5 8 0 0 1 3.5 1.844v-7.162a11.5 14 0 0 0 -3.5-.682z" opacity=".2"/><path d="m26.5 18a11.5 14 0 0 0 -11.5 14 11.5 14 0 0 0 11.5 14 11.5 14 0 0 0 3.5-.67v-7.176a5.5 8 0 0 1 -3.5 1.846 5.5 8 0 0 1 -5.5-8 5.5 8 0 0 1 5.5-8 5.5 8 0 0 1 3.5 1.844v-7.162a11.5 14 0 0 0 -3.5-.682z" fill="#da97fb"/></svg>

<svg width="64" height="64" xmlns="http://www.w3.org/2000/svg"><path d="M4 56.2v2C4 59.75 5.25 61 6.8 61h50.4c1.55 0 2.8-1.25 2.8-2.8v-2c0 1.55-1.25 2.8-2.8 2.8H6.8C5.25 59 4 57.75 4 56.2z" style="opacity:.2"/><rect x="4" y="4" width="56" height="56" rx="2.8" ry="2.8" style="fill:#5f3271"/><path d="M6.8 4C5.25 4 4 5.25 4 6.8v1.003c0-1.551 1.25-2.801 2.8-2.801h50.4c1.55 0 2.8 1.25 2.8 2.8V6.802C60 5.25 58.75 4 57.2 4z" style="fill:#f4f4f7;opacity:.1"/><path d="M35 20v27h4V34h4c2 0 2 2 2 2v11h4V35c0-2-2-5-7-5-1.163 0-2.149.115-3 .281V20z" style="opacity:.2"/><path d="M35 19v27h4V33h4c2 0 2 2 2 2v11h4V34c0-2-2-5-7-5-1.163 0-2.149.115-3 .281V19z" style="fill:#da97fb"/><path d="M26.5 19A11.5 14 0 0 0 15 33a11.5 14 0 0 0 11.5 14 11.5 14 0 0 0 3.5-.67v-7.176A5.5 8 0 0 1 26.5 41a5.5 8 0 0 1-5.5-8 5.5 8 0 0 1 5.5-8 5.5 8 0 0 1 3.5 1.844v-7.162A11.5 14 0 0 0 26.5 19z" style="opacity:.2"/><path d="M26.5 18A11.5 14 0 0 0 15 32a11.5 14 0 0 0 11.5 14 11.5 14 0 0 0 3.5-.67v-7.176A5.5 8 0 0 1 26.5 40a5.5 8 0 0 1-5.5-8 5.5 8 0 0 1 5.5-8 5.5 8 0 0 1 3.5 1.844v-7.162A11.5 14 0 0 0 26.5 18z" style="fill:#da97fb"/></svg>
